X: 2
T: The Curvy Road to Corinth
C: Larry Unger (1988)
R: reel
Z: 2019 John Chambers <jc:trillian.mit.edu>
M: C|
L: 1/8
K: Em
|:\
"Em"B2eB gBeB | "D"dAeA fAeA | "Em"B2eB gBeg | "C"fedB "D"AGFA ||\
"Em"B2eB gBeB |
"D"dAeA fAef | "C"gfed BedB | "Bm"AGFD B,DFD ::\
"C"E3F G2E2 | "G"GDAD BDGD |
"Am"E3F G2E2 | "Bm"FEDB, D2F2 ||\
"C"E3F G2E2 | "G"GDAD BDGB | "D"AdBe dBAG | "Bm"BAGF E2D2 :|

%%sep 1 1 500

